Sources/FrostedUI/Resources/Icons.xcassets/copy24.imageset/copy-24.svg

<svg width="24" height="24" viewBox="0 0 24 24" fill="none" xmlns="http://www.w3.org/2000/svg" data-fui-icon="true">
  <path
    d="M6.25 8C6.66421 8 7 8.33579 7 8.75C7 9.16421 6.66421 9.5 6.25 9.5H3.75C3.05964 9.5 2.5 10.0596 2.5 10.75V20.25C2.5 20.9404 3.05964 21.5 3.75 21.5H12.25C12.9404 21.5 13.5 20.9404 13.5 20.25V18.75C13.5 18.3358 13.8358 18 14.25 18C14.6642 18 15 18.3358 15 18.75V20.25C15 21.7688 13.7688 23 12.25 23H3.75C2.23122 23 1 21.7688 1 20.25V10.75C1 9.23122 2.23122 8 3.75 8H6.25ZM20.25 1C21.7688 1 23 2.23122 23 3.75V13.25C23 14.7688 21.7688 16 20.25 16H11.75C10.2312 16 9 14.7688 9 13.25V3.75C9 2.23122 10.2312 1 11.75 1H20.25ZM11.75 2.5C11.0596 2.5 10.5 3.05964 10.5 3.75V13.25C10.5 13.9404 11.0596 14.5 11.75 14.5H20.25C20.9404 14.5 21.5 13.9404 21.5 13.25V3.75C21.5 3.05964 20.9404 2.5 20.25 2.5H11.75Z"
    fill="currentColor"
  />
</svg>

<svg xmlns="http://www.w3.org/2000/svg" width="24" height="24" fill="none" data-fui-icon="true" viewBox="0 0 24 24"><path fill="currentColor" d="M6.25 8a.75.75 0 0 1 0 1.5h-2.5c-.69 0-1.25.56-1.25 1.25v9.5c0 .69.56 1.25 1.25 1.25h8.5c.69 0 1.25-.56 1.25-1.25v-1.5a.75.75 0 0 1 1.5 0v1.5A2.75 2.75 0 0 1 12.25 23h-8.5A2.75 2.75 0 0 1 1 20.25v-9.5A2.75 2.75 0 0 1 3.75 8zm14-7A2.75 2.75 0 0 1 23 3.75v9.5A2.75 2.75 0 0 1 20.25 16h-8.5A2.75 2.75 0 0 1 9 13.25v-9.5A2.75 2.75 0 0 1 11.75 1zm-8.5 1.5c-.69 0-1.25.56-1.25 1.25v9.5c0 .69.56 1.25 1.25 1.25h8.5c.69 0 1.25-.56 1.25-1.25v-9.5c0-.69-.56-1.25-1.25-1.25z"/></svg>
